T: Seven Hops
M: 3/4
L: 1/8
K: Gmaj
B2 D2 G2 | B2 G2 D2 | C2 E3 G | c4 E2 | D2 F2 A2 | c2 A2 c2 | B2 G2 E2 | D4 C2 |B2 D3 G | B2 G2 D2 | C2 E2 G2 | c4 E2 | D2 F2 A2 | c2 d3 c | B2 G2 F2 | G4 :|B4 Bd | c2 B3 A | G2 C2 E2 | D3 D GB | c2 cB A>F | D2 F2 A^A | B3 G E2 | D4 G2 |B2 B3 d | (3cdc B2 A2 | G2 C2 E2 | D4 d2 | c2 d/c/B A>F | D2 F3 c | B2 G2 G2 | G4 :|
